images/3-8.svg

<svg id="Layer_1" xmlns="http://www.w3.org/2000/svg" viewBox="0 0 561 252"><style>.st0{fill:none;stroke:#E0E1E0;stroke-width:0.5;stroke-linejoin:round;stroke-miterlimit:10;} .st1{fill:none;stroke:#414042;stroke-width:0.5;stroke-linejoin:round;stroke-miterlimit:10;} .st2{fill:none;stroke:#CC333F;stroke-width:2.25;stroke-linecap:round;stroke-linejoin:round;stroke-miterlimit:10;} .st3{fill:#414042;} .st4{font-family:&apos;Lato&apos;;font-weight:400;} .st5{font-size:10px;} .st6{fill:none;stroke:#6D6E71;stroke-width:0.5;} .st7{fill:#6D6E71;} .st8{fill:none;} .st9{font-family:&apos;Lato&apos;;font-weight:700;} .st10{font-size:8px;}</style><path class="st0" d="M22.7 10.9h527.5M22.7 38.1h527.5m-527.5 28h527.5M22.7 93.3h527.5m-527.5 28h527.5M22.7 148.6h527.5m-527.5 28h527.5M22.7 203.8h527.5"/><path class="st1" d="M22.8 231.5h528.6M518.2 228.7v5.4m33.2-5.3v5.4m-66.4-5.5v5.4m-33.2-5.4v5.4m-32.3-5.4v5.4m-33.2-5.4v5.4m-33.2-5.4v5.4m-33.3-5.4v5.4m-33.2-5.4v5.4m-32.3-5.4v5.4m-33.2-5.4v5.4m-33.2-5.4v5.4m-33.2-5.4v5.4m-32.3-5.4v5.4m-33.3-5.4v5.4m-33.2-5.4v5.4m-33.2-5.4v5.4"/><path class="st2" d="M543.1 48.2h7.1m-13.7 41.2l6.5-41.2m-13 41.2h6.5m-13-3.1l6.5 3.1m-13.1-3.1h6.5m-13 3.1l6.5-3.1M503 89.4h7.5m-14.1 0h6.5m-13 0h6.5m-13 14l6.5-14m-13.1 14h6.5m-13 0h6.5m-13 0h6.5m-14 0h7.5m-14 0h6.5m-13 0h6.5m-13.1 0h6.5m-13 0h6.5m-13-23.3l6.5 23.3m-14-23.3h7.5m-14 0h6.5m-13 0h6.5m-13.1 0h6.5m-13 23.3l6.5-23.3m-13 23.3h6.5m-13 0h6.5m-14 0h7.5m-14-23.3l6.5 23.3m-13.1-23.3h6.5m-13 0h6.5m-13 0h6.5m-13 0h6.5m-14 0h7.5m-14 0h6.5m-13.1 0h6.5m-13 0h6.5m-13 0h6.5m-13 0h6.5m-14 0h7.5m-14 0h6.5m-13.1 0h6.5m-13 13.2l6.5-13.2m-13 13.2h6.5m-13 0h6.5m-13.1 0h6.5m-13.9 0h7.5m-14.1 0h6.5m-13 42l6.5-42m-13 42h6.5m-13 0h6.5m-13.1 0h6.5m-13.9 0h7.5m-14.1 0h6.5m-13 0h6.5m-13 0h6.5m-13 13.3l6.5-13.2M170 148.6h6.5m-13.9 0h7.5m-14.1 0h6.5m-13 0h6.5m-13 0h6.5m-13 0h6.5m-13.1 0h6.5m-13 0h6.5m-14 0h7.5m-14 0h6.5m-13 0h6.5m-13 0h6.5m-13.1 0h6.5m-13 0h6.5m-14 0h7.5m-14-123.7l6.5 123.7m-13-123.7h6.5m-13 0h6.5m-13.1 0h6.5m-13 0h6.5m-14 0h7.5m-14 0h6.5m-13 0h6.5"/><text transform="translate(5.418 234.69)" class="st3 st4 st5">0%</text><text transform="translate(5.418 207.125)" class="st3 st4 st5">2%</text><text transform="translate(5.418 179.56)" class="st3 st4 st5">4%</text><text transform="translate(5.418 151.994)" class="st3 st4 st5">6%</text><text transform="translate(5.418 124.43)" class="st3 st4 st5">8%</text><text transform="translate(0 96.863)" class="st3 st4 st5">10%</text><text transform="translate(0 69.298)" class="st3 st4 st5">12%</text><text transform="translate(0 41.732)" class="st3 st4 st5">14%</text><text transform="translate(0 14.167)" class="st3 st4 st5">16%</text><text transform="translate(11.085 245.565)" class="st3 st4 st5">1935</text><text transform="translate(43.708 245.565)" class="st3 st4 st5">1940</text><text transform="translate(77.33 245.565)" class="st3 st4 st5">1945</text><text transform="translate(110.95 245.565)" class="st3 st4 st5">1950</text><text transform="translate(143.573 245.565)" class="st3 st4 st5">1955</text><text transform="translate(176.195 245.565)" class="st3 st4 st5">1960</text><text transform="translate(209.817 245.565)" class="st3 st4 st5">1965</text><text transform="translate(242.44 245.565)" class="st3 st4 st5">1970</text><text transform="translate(275.06 245.565)" class="st3 st4 st5">1975</text><text transform="translate(308.14 245.565)" class="st3 st4 st5">1980</text><text transform="translate(341.462 245.564)" class="st3 st4 st5">1985</text><text transform="translate(374.685 245.565)" class="st3 st4 st5">1990</text><text transform="translate(407.906 245.565)" class="st3 st4 st5">1995</text><text transform="translate(440.206 245.565)" class="st3 st4 st5">2000</text><text transform="translate(473.428 245.564)" class="st3 st4 st5">2005</text><text transform="translate(506.616 245.565)" class="st3 st4 st5">2010</text><text transform="translate(538.536 245.252)" class="st3 st4 st5">2015</text><path class="st6" d="M78 93.8c1.7-6.6 5.7-20.7 11.5-27.7 10.4-12.7 20.7-12.4 20.7-12.4"/><path class="st7" d="M80.6 93.7l-3.5 3.6-1.4-4.8z"/><path class="st8" d="M112.3 50.2h107v73h-107z"/><text transform="translate(112.32 56.194)"><tspan x="0" y="0" class="st7 st9 st10">In 1943, Governor Earl </tspan><tspan x="0" y="9.6" class="st7 st9 st10">Warren cut the top marginal </tspan><tspan x="0" y="19.2" class="st7 st9 st10">tax rate from 15 percent to 6 </tspan><tspan x="0" y="28.8" class="st7 st9 st10">percent.</tspan></text></svg>

<?xml version="1.0" encoding="utf-8"?>
<!-- Generator: Adobe Illustrator 19.1.0, SVG Export Plug-In . SVG Version: 6.00 Build 0)  -->
<svg version="1.1" id="Layer_1" xmlns="http://www.w3.org/2000/svg" xmlns:xlink="http://www.w3.org/1999/xlink" x="0px" y="0px"
	 viewBox="0 0 561 252" style="enable-background:new 0 0 561 252;" xml:space="preserve">
<style type="text/css">
	.st0{fill:none;stroke:#E0E1E0;stroke-width:0.5;stroke-linejoin:round;stroke-miterlimit:10;}
	.st1{fill:none;stroke:#414042;stroke-width:0.5;stroke-linejoin:round;stroke-miterlimit:10;}
	.st2{fill:none;stroke:#CC333F;stroke-width:2.25;stroke-linecap:round;stroke-linejoin:round;stroke-miterlimit:10;}
	.st3{fill:#414042;}
	.st4{font-family:'Lato-Regular';}
	.st5{font-size:10px;}
	.st6{fill:none;stroke:#6D6E71;stroke-width:0.5;}
	.st7{fill:#6D6E71;}
	.st8{fill:none;}
	.st9{font-family:'Lato-Heavy';}
	.st10{font-size:8px;}
</style>
<path class="st0" d="M22.7,10.9h527.5 M22.7,38.1h527.5 M22.7,66.1h527.5 M22.7,93.3h527.5 M22.7,121.3h527.5 M22.7,148.6h527.5
	 M22.7,176.6h527.5 M22.7,203.8h527.5"/>
<line class="st1" x1="22.8" y1="231.5" x2="551.4" y2="231.5"/>
<path class="st1" d="M518.2,228.7v5.4 M551.4,228.8v5.4 M485,228.7v5.4 M451.8,228.7v5.4 M419.5,228.7v5.4 M386.3,228.7v5.4
	 M353.1,228.7v5.4 M319.8,228.7v5.4 M286.6,228.7v5.4 M254.3,228.7v5.4 M221.1,228.7v5.4 M187.9,228.7v5.4 M154.7,228.7v5.4
	 M122.4,228.7v5.4 M89.1,228.7v5.4 M55.9,228.7v5.4 M22.7,228.7v5.4"/>
<path class="st2" d="M543.1,48.2h7.1 M536.5,89.4l6.5-41.2 M530,89.4h6.5 M523.5,86.3l6.5,3.1 M516.9,86.3h6.5 M510.4,89.4l6.5-3.1
	 M503,89.4h7.5 M496.4,89.4h6.5 M489.9,89.4h6.5 M483.4,103.4l6.5-14 M476.8,103.4h6.5 M470.3,103.4h6.5 M463.8,103.4h6.5
	 M456.3,103.4h7.5 M449.8,103.4h6.5 M443.3,103.4h6.5 M436.7,103.4h6.5 M430.2,103.4h6.5 M423.7,80.1l6.5,23.3 M416.2,80.1h7.5
	 M409.7,80.1h6.5 M403.2,80.1h6.5 M396.6,80.1h6.5 M390.1,103.4l6.5-23.3 M383.6,103.4h6.5 M377.1,103.4h6.5 M369.6,103.4h7.5
	 M363.1,80.1l6.5,23.3 M356.5,80.1h6.5 M350,80.1h6.5 M343.5,80.1h6.5 M337,80.1h6.5 M329.5,80.1h7.5 M323,80.1h6.5 M316.4,80.1h6.5
	 M309.9,80.1h6.5 M303.4,80.1h6.5 M296.9,80.1h6.5 M289.4,80.1h7.5 M282.9,80.1h6.5 M276.3,80.1h6.5 M269.8,93.3l6.5-13.2
	 M263.3,93.3h6.5 M256.8,93.3h6.5 M250.2,93.3h6.5 M242.8,93.3h7.5 M236.2,93.3h6.5 M229.7,135.3l6.5-42 M223.2,135.3h6.5
	 M216.7,135.3h6.5 M210.1,135.3h6.5 M202.7,135.3h7.5 M196.1,135.3h6.5 M189.6,135.3h6.5 M183.1,135.3h6.5 M176.6,148.6l6.5-13.2
	 M170,148.6h6.5 M162.6,148.6h7.5 M156,148.6h6.5 M149.5,148.6h6.5 M143,148.6h6.5 M136.5,148.6h6.5 M129.9,148.6h6.5 M123.4,148.6
	h6.5 M115.9,148.6h7.5 M109.4,148.6h6.5 M102.9,148.6h6.5 M96.4,148.6h6.5 M89.8,148.6h6.5 M83.3,148.6h6.5 M75.8,148.6h7.5
	 M69.3,24.9l6.5,123.7 M62.8,24.9h6.5 M56.3,24.9h6.5 M49.7,24.9h6.5 M43.2,24.9h6.5 M35.7,24.9h7.5 M29.2,24.9h6.5 M22.7,24.9h6.5"
	/>
<text transform="matrix(1 0 0 1 5.4175 234.6904)" class="st3 st4 st5">0% </text>
<text transform="matrix(1 0 0 1 5.4175 207.125)" class="st3 st4 st5">2% </text>
<text transform="matrix(1 0 0 1 5.4175 179.5596)" class="st3 st4 st5">4% </text>
<text transform="matrix(1 0 0 1 5.4175 151.9941)" class="st3 st4 st5">6% </text>
<text transform="matrix(1 0 0 1 5.4175 124.4287)" class="st3 st4 st5">8% </text>
<text transform="matrix(1 0 0 1 0 96.8633)" class="st3 st4 st5">10% </text>
<text transform="matrix(1 0 0 1 0 69.2979)" class="st3 st4 st5">12% </text>
<text transform="matrix(1 0 0 1 0 41.7324)" class="st3 st4 st5">14% </text>
<text transform="matrix(1 0 0 1 0 14.1672)" class="st3 st4 st5">16% </text>
<text transform="matrix(1 0 0 1 11.0853 245.5645)" class="st3 st4 st5">1935</text>
<text transform="matrix(1 0 0 1 43.7075 245.5645)" class="st3 st4 st5">1940</text>
<text transform="matrix(1 0 0 1 77.3291 245.5645)" class="st3 st4 st5">1945</text>
<text transform="matrix(1 0 0 1 110.9512 245.5645)" class="st3 st4 st5">1950</text>
<text transform="matrix(1 0 0 1 143.5732 245.5645)" class="st3 st4 st5">1955</text>
<text transform="matrix(1 0 0 1 176.1953 245.5645)" class="st3 st4 st5">1960</text>
<text transform="matrix(1 0 0 1 209.8169 245.5645)" class="st3 st4 st5">1965</text>
<text transform="matrix(1 0 0 1 242.439 245.5645)" class="st3 st4 st5">1970</text>
<text transform="matrix(1 0 0 1 275.0608 245.5645)" class="st3 st4 st5">1975</text>
<text transform="matrix(1 0 0 1 308.141 245.5645)" class="st3 st4 st5">1980</text>
<text transform="matrix(1 0 0 1 341.4622 245.5641)" class="st3 st4 st5">1985</text>
<text transform="matrix(1 0 0 1 374.6846 245.5645)" class="st3 st4 st5">1990</text>
<text transform="matrix(1 0 0 1 407.9062 245.5645)" class="st3 st4 st5">1995</text>
<text transform="matrix(1 0 0 1 440.2061 245.5645)" class="st3 st4 st5">2000</text>
<text transform="matrix(1 0 0 1 473.4278 245.5641)" class="st3 st4 st5">2005</text>
<text transform="matrix(1 0 0 1 506.6161 245.5648)" class="st3 st4 st5">2010</text>
<text transform="matrix(1 0 0 1 538.5358 245.252)" class="st3 st4 st5">2015</text>
<g>
	<g>
		<path class="st6" d="M78,93.8c1.7-6.6,5.7-20.7,11.5-27.7c10.4-12.7,20.7-12.4,20.7-12.4"/>
		<g>
			<polygon class="st7" points="80.6,93.7 77.1,97.3 75.7,92.5 			"/>
		</g>
	</g>
</g>
<rect x="112.3" y="50.2" class="st8" width="107" height="73"/>
<text transform="matrix(1 0 0 1 112.3203 56.1943)"><tspan x="0" y="0" class="st7 st9 st10">In 1943, Governor Earl </tspan><tspan x="0" y="9.6" class="st7 st9 st10">Warren cut the top marginal </tspan><tspan x="0" y="19.2" class="st7 st9 st10">tax rate from 15 percent to 6 </tspan><tspan x="0" y="28.8" class="st7 st9 st10">percent.</tspan></text>
</svg>
